X:226
T:Hareu, li maus d'amer m'ochist
C:Adam de la Halle
R:Rondeau
O:XIIIe
M:3/4
L:1/8
Q:1/4=100
K:C 
%%continueall 1
%%maxshrink 0.6
V:1
%%MIDI program 105
e2f4 | (3fede2d2 | c2d2^cB | ^c2d4 | 
e2f4 | (3fede2d2 | =c2d4 | e2f4 | 
(3fede2d2 | c2d4 | e2f4 | (3fede2d2 | 
c2d2^cB | ^c2d4 | e2f4 | (3fede2d2 | 
=c2d2^cB | ^c2d4 |]
V:2
%%MIDI program 66
B2=c4 | (3cBAB2A2 | G2A2^G^F | ^G2A4 | 
B2c4 | (3cBAB2A2 | =G2A4 | B2c4 | 
(3cBAB2A2 | G2A4 | B2c4 | (3cBAB2A2 | 
G2A2^G^F | ^G2A4 | B2c4 | (3cBAB2A2 | 
=G2A2^G^F | ^G2A4 |]
V:3
%%MIDI program 79
=G2=F4 | F2E4 | E2D2E2 | E2D4 | 
G2F4 | F2E4 | E2D4 | G2F4 | 
F2E4 | E2D4 | G2F4 | F2E4 | 
E2D2E2 | E2D4 | G2F4 | F2E4 | 
E2D2E2 | E2D4 |]




%%header "$P0	 $IR 	$P1"
%%footer $D - Éditions Galouvielle - 2009 - À usage librement privé dans le cadre familial

